X:69
T:Frost On The Pumpkin Reel
R:reel
C:Bruce Osborne - Jan. 2002
Z:abc by bosborne@kos.net
M:2/4
L:1/8
K:Bb
F/E/|D/B,/D/F/ B/F/B/d/|g/f/=e/g/ fc/d/|e/c/A/F/ E/F/A/c/|B/A/B/c/ dF/E/|\
D/B,/D/F/ B/F/B/d/|g/f/=e/g/ fc/d/|e/c/A/F/ E/F/A/c/|B/A/B/c/ B:|
|:B/A/|G/F/G/A/ B/c/B/G/|F/G/F/D/ FC/D/|E/D/E/F/ A/B/A/G/|F/G/F/E/ DB/A/|\
G/F/G/A/ B/c/B/G/|F/G/F/D/ FC/D/|E/D/E/F/ A/B/c/A/|B/c/B/A/ B:|
